X: 616
T: Molly Put the Kettle On   #2
R: reel
%S: s:2 b:12(6+6)
B: Francis O'Neill: "The Dance Music of Ireland" (1907) #616
Z: Frank Nordberg - http://www.musicaviva.com
F: http://www.musicaviva.com/abc/tunes/ireland/oneill-1001/0616/oneill-1001-0616-1.abc
M: C
L: 1/8
K: Am
"^A"\
|: cded cAAc | Bcdc BGG2 |\
[1 ceed cBAG | EDE^G A2A2 :|\
[2 cBcA B2AG | EDE^G A2A2 |]
"^B"\
|: cde^f g2fg | aged cAA2 |\
[1 cde^f g2fg | age^g a2a2 :|\
[2 cded  cAAG | EDE^G A2A2 |]
